docs/images/info/1.svg

<svg width="99" height="79" viewBox="0 0 99 79" fill="none" xmlns="http://www.w3.org/2000/svg">
<path d="M98.5706 43.9165L83.2024 17.2512L67.8343 43.9165H77.2485C75.0604 57.4019 63.407 67.783 49.311 67.783C42.6956 67.783 36.4364 65.3913 31.3476 61.2185C30.7878 60.7605 30.228 60.4043 29.7191 59.8954L22.0859 67.8848C23.2564 69.0043 24.5286 69.8694 25.8008 70.8363C32.5689 75.9251 40.7109 78.8257 49.311 78.8257C69.5136 78.8257 86.0013 63.5084 88.2403 43.9165H98.5706Z" fill="#323E48"/>
<path d="M30.7872 34.9092H21.373C23.5611 21.4239 35.1636 11.0427 49.2596 11.0427C55.7733 11.0427 61.9816 13.3835 67.0195 17.4546C67.5793 17.9126 68.2408 18.3197 68.8006 18.8286L76.3829 10.8391C75.2125 9.71961 73.8894 8.80363 72.6172 7.88764C65.8491 2.90062 57.8088 0 49.2596 0C29.1079 0 12.6202 15.3173 10.3303 34.9092H0L15.4191 61.5745L30.7872 34.9092Z" fill="#323E48"/>
</svg>

<svg xmlns="http://www.w3.org/2000/svg" width="99" height="79" fill="none"><path fill="#323E48" d="M98.57 43.917 83.203 17.25 67.834 43.916h9.415C75.06 57.403 63.407 67.784 49.31 67.784c-6.615 0-12.875-2.392-17.963-6.565-.56-.458-1.12-.814-1.629-1.323l-7.633 7.99c1.17 1.12 2.443 1.984 3.715 2.951 6.768 5.09 14.91 7.99 23.51 7.99 20.203 0 36.69-15.318 38.93-34.91zM30.787 34.91h-9.414c2.188-13.486 13.79-23.867 27.887-23.867 6.513 0 12.722 2.34 17.76 6.412.56.458 1.22.865 1.78 1.374l7.583-7.99c-1.17-1.12-2.494-2.035-3.766-2.951C65.85 2.9 57.81 0 49.26 0 29.108 0 12.62 15.317 10.33 34.91H0l15.42 26.665z"/></svg>
